**kern	**kern
*staff2	*staff1
*clefF4	*clefG2
*k[f#c#g#]	*k[f#c#g#]
*M3/4	*M3/4
*A:	*A:
=-	=-
4r	16aLL
.	16b
.	16cc#
.	16ddJJ
=241	=241
8C#L 8A	(4.ee
8EJ	.
8C#L 8A	.
8EJ	8a')
8C#L 8A	8a'L
8EJ	8a'J
=242	=242
8BBL 8G#	(16g#LL
.	16a
8EJ	16b
.	16cc#JJ)
8BBL 8G#	4dd
8EJ	.
8DL 8B	8r
8EJ	8ee
=243	=243
8C#L 8A	(16eeeLL
.	16ddd#
8EJ	16eee
.	16ddd#JJ)
8C#L 8A	8eeeL
8EJ	8aa'J
8C#L 8A	8aa'L
8EJ	8aa'J
=244	=244
8BBL 8G#	(16gg#LL
.	16aa
8EJ	16bb
.	16ccc#JJ)
8BBL 8G#	4ddd'
8EJ	.
8DL 8B	8r
8EJ	8g#
=245	=245
4C# 4E 4A	16aLL
.	16g#
.	16b
.	16aJJ
4r	16cc#LL
.	16b
.	16dd
.	16cc#JJ
4r	16eeLL
.	16dd#
.	16ff#
.	16eeJJ
=246	=246
2.r	16aaLL
.	16gg#
.	16bb
.	16aaJJ
.	16ccc#LL
.	16bb
.	16ddd
.	16ccc#JJ
.	16eeeLL
.	16ccc#
.	16aa
.	16eeJJ
=247	=247
*	*^
4r	16cc#LL	2r
.	16b	.
.	16cc#	.
.	16eeJJ	.
4E 4c#	4a	.
4E 4d	8cc#L	4g#
.	8bJ	.
*	*v	*v
=248	=248
4A 4c#	4a
[8AA	8r
=	=
*-	*-
